X:210
T:Put on thy Smock on a Monday. (p)1670.PLFD1.210
M:6/4
L:1/4
Q:3/4=120
S:Playford, Dancing Master,4th Ed.,1670.
O:England;London
H:1670.
Z:Chris Partington
K:C
c|c2G E2G|d3-d2B|c2B c2d|e3-e2c|
d>ef e>dc|d2B G>AB|c2G E2G|c3-c2:|
